app/assets/images/niveauY1-blanc.svg

<svg width="20" height="20" viewBox="0 0 20 20" fill="none" xmlns="http://www.w3.org/2000/svg">
<path d="M6.6035 5.16685C6.65683 5.16685 6.70016 5.18463 6.7335 5.22018C6.76683 5.25574 6.7835 5.30018 6.7835 5.35352V7.29685C6.7835 7.35463 6.7635 7.40352 6.7235 7.44352C6.68572 7.48129 6.63794 7.50018 6.58016 7.50018C6.54905 7.50018 6.51794 7.49574 6.48683 7.48685C6.45794 7.47574 6.43683 7.46129 6.4235 7.44352L5.20016 5.89018V7.31352C5.20016 7.36685 5.18238 7.41129 5.14683 7.44685C5.1135 7.4824 5.06905 7.50018 5.0135 7.50018C4.96016 7.50018 4.91683 7.4824 4.8835 7.44685C4.85016 7.41129 4.8335 7.36685 4.8335 7.31352V5.37018C4.8335 5.3124 4.85238 5.26463 4.89016 5.22685C4.93016 5.18685 4.97905 5.16685 5.03683 5.16685C5.07016 5.16685 5.10239 5.17352 5.1335 5.18685C5.16683 5.20018 5.19127 5.21796 5.20683 5.24018L6.42016 6.78685V5.35352C6.42016 5.30018 6.43683 5.25574 6.47016 5.22018C6.50572 5.18463 6.55016 5.16685 6.6035 5.16685Z" fill="#FBF9FA"/>
<path d="M7.628 7.29685C7.628 7.35463 7.60911 7.40352 7.57133 7.44352C7.53356 7.48129 7.48578 7.50018 7.428 7.50018C7.37022 7.50018 7.32245 7.48129 7.28467 7.44352C7.24689 7.40352 7.228 7.35463 7.228 7.29685V5.92018C7.228 5.8624 7.24689 5.81463 7.28467 5.77685C7.32245 5.73685 7.37022 5.71685 7.428 5.71685C7.48578 5.71685 7.53356 5.73685 7.57133 5.77685C7.60911 5.81463 7.628 5.8624 7.628 5.92018V7.29685ZM7.42467 5.50018C7.34911 5.50018 7.29578 5.48796 7.26467 5.46352C7.23356 5.43907 7.218 5.39574 7.218 5.33352V5.27018C7.218 5.20796 7.23467 5.16463 7.268 5.14018C7.30133 5.11574 7.35467 5.10352 7.428 5.10352C7.50578 5.10352 7.56022 5.11574 7.59133 5.14018C7.62245 5.16463 7.638 5.20796 7.638 5.27018V5.33352C7.638 5.39796 7.62133 5.4424 7.588 5.46685C7.55689 5.48907 7.50245 5.50018 7.42467 5.50018Z" fill="#FBF9FA"/>
<path d="M9.4091 5.72018C9.46243 5.72018 9.50687 5.73796 9.54243 5.77352C9.57798 5.80685 9.59576 5.84907 9.59576 5.90018C9.59576 5.92685 9.58687 5.96018 9.5691 6.00018L8.94576 7.37352C8.93021 7.41129 8.90687 7.44129 8.87576 7.46352C8.84687 7.48574 8.81354 7.49796 8.77576 7.50018L8.74576 7.50352C8.70798 7.50352 8.67243 7.4924 8.6391 7.47018C8.60798 7.44574 8.58354 7.41352 8.56576 7.37352L7.94576 6.00018C7.93021 5.96463 7.92243 5.92907 7.92243 5.89352C7.92243 5.84907 7.94132 5.80907 7.9791 5.77352C8.01687 5.73574 8.06354 5.71685 8.1191 5.71685C8.16132 5.71685 8.20021 5.72796 8.23576 5.75018C8.27132 5.7724 8.29798 5.80352 8.31576 5.84352L8.77576 6.89685L9.23243 5.84685C9.25021 5.80463 9.27465 5.7724 9.30576 5.75018C9.33687 5.72796 9.37132 5.71796 9.4091 5.72018Z" fill="#FBF9FA"/>
<path d="M11.4946 6.56685C11.4923 6.62018 11.4712 6.66352 11.4312 6.69685C11.3912 6.73018 11.3446 6.74685 11.2912 6.74685H10.1912C10.2179 6.87796 10.279 6.98129 10.3746 7.05685C10.4701 7.13018 10.5779 7.16685 10.6979 7.16685C10.789 7.16685 10.8601 7.15907 10.9112 7.14352C10.9623 7.12574 11.0023 7.10796 11.0312 7.09018C11.0623 7.07018 11.0835 7.05685 11.0946 7.05018C11.1346 7.03018 11.1723 7.02018 11.2079 7.02018C11.2546 7.02018 11.2946 7.03685 11.3279 7.07018C11.3612 7.10352 11.3779 7.1424 11.3779 7.18685C11.3779 7.24685 11.3468 7.30129 11.2846 7.35018C11.2223 7.40129 11.139 7.44463 11.0346 7.48018C10.9301 7.51574 10.8246 7.53352 10.7179 7.53352C10.5312 7.53352 10.3679 7.49463 10.2279 7.41685C10.0901 7.33907 9.98345 7.2324 9.9079 7.09685C9.83234 6.95907 9.79456 6.80463 9.79456 6.63352C9.79456 6.4424 9.83456 6.27463 9.91456 6.13018C9.99456 5.98574 10.1001 5.87574 10.2312 5.80018C10.3623 5.7224 10.5023 5.68352 10.6512 5.68352C10.7979 5.68352 10.9357 5.72352 11.0646 5.80352C11.1957 5.88352 11.3001 5.99129 11.3779 6.12685C11.4557 6.2624 11.4946 6.40907 11.4946 6.56685ZM10.6512 6.05018C10.3935 6.05018 10.2412 6.17129 10.1946 6.41352H11.0679V6.39018C11.059 6.29685 11.0135 6.21685 10.9312 6.15018C10.849 6.08352 10.7557 6.05018 10.6512 6.05018Z" fill="#FBF9FA"/>
<path d="M13.2845 5.68352C13.3423 5.68352 13.3901 5.7024 13.4278 5.74018C13.4656 5.77796 13.4845 5.82685 13.4845 5.88685V7.29685C13.4845 7.35463 13.4656 7.40352 13.4278 7.44352C13.3901 7.48129 13.3423 7.50018 13.2845 7.50018C13.2267 7.50018 13.179 7.48129 13.1412 7.44352C13.1056 7.40574 13.0867 7.35796 13.0845 7.30018C13.029 7.36463 12.9534 7.42018 12.8578 7.46685C12.7645 7.51129 12.6656 7.53352 12.5612 7.53352C12.4078 7.53352 12.269 7.49463 12.1445 7.41685C12.0201 7.33685 11.9212 7.22685 11.8478 7.08685C11.7767 6.94685 11.7412 6.78796 11.7412 6.61018C11.7412 6.4324 11.7767 6.27352 11.8478 6.13352C11.919 5.99129 12.0156 5.88129 12.1378 5.80352C12.2623 5.72352 12.399 5.68352 12.5478 5.68352C12.6545 5.68352 12.7545 5.70352 12.8478 5.74352C12.9412 5.78129 13.0201 5.83018 13.0845 5.89018V5.88685C13.0845 5.82907 13.1034 5.78129 13.1412 5.74352C13.179 5.70352 13.2267 5.68352 13.2845 5.68352ZM12.6112 7.16685C12.7556 7.16685 12.8734 7.11463 12.9645 7.01018C13.0556 6.90352 13.1012 6.77018 13.1012 6.61018C13.1012 6.45018 13.0556 6.31685 12.9645 6.21018C12.8734 6.10352 12.7556 6.05018 12.6112 6.05018C12.469 6.05018 12.3523 6.10352 12.2612 6.21018C12.1701 6.31685 12.1245 6.45018 12.1245 6.61018C12.1245 6.77018 12.169 6.90352 12.2578 7.01018C12.349 7.11463 12.4667 7.16685 12.6112 7.16685Z" fill="#FBF9FA"/>
<path d="M15.2088 5.71685C15.2666 5.71685 15.3143 5.73685 15.3521 5.77685C15.3899 5.81463 15.4088 5.8624 15.4088 5.92018V6.76685C15.4088 7.00685 15.3421 7.19463 15.2088 7.33018C15.0777 7.46574 14.8899 7.53352 14.6454 7.53352C14.401 7.53352 14.2132 7.46574 14.0821 7.33018C13.951 7.19463 13.8854 7.00685 13.8854 6.76685V5.92018C13.8854 5.8624 13.9043 5.81463 13.9421 5.77685C13.9799 5.73685 14.0277 5.71685 14.0854 5.71685C14.1432 5.71685 14.191 5.73685 14.2288 5.77685C14.2666 5.81463 14.2854 5.8624 14.2854 5.92018V6.76685C14.2854 6.9024 14.3154 7.00352 14.3754 7.07018C14.4354 7.13463 14.5254 7.16685 14.6454 7.16685C14.7677 7.16685 14.8588 7.13463 14.9188 7.07018C14.9788 7.00352 15.0088 6.9024 15.0088 6.76685V5.92018C15.0088 5.8624 15.0277 5.81463 15.0654 5.77685C15.1032 5.73685 15.151 5.71685 15.2088 5.71685Z" fill="#FBF9FA"/>
<path fill-rule="evenodd" clip-rule="evenodd" d="M10 18.75C14.8325 18.75 18.75 14.8325 18.75 10C18.75 5.16751 14.8325 1.25 10 1.25C5.16751 1.25 1.25 5.16751 1.25 10C1.25 14.8325 5.16751 18.75 10 18.75ZM10 20C15.5228 20 20 15.5228 20 10C20 4.47715 15.5228 0 10 0C4.47715 0 0 4.47715 0 10C0 15.5228 4.47715 20 10 20Z" fill="#FBF9FA"/>
<path d="M8.00043 8.97463C8.00043 9.0913 7.96835 9.19921 7.90418 9.29838L6.07543 11.9146V14.0496C6.07543 14.2013 6.02585 14.3296 5.92668 14.4346C5.82751 14.5338 5.70793 14.5834 5.56793 14.5834C5.4221 14.5834 5.29668 14.5338 5.19168 14.4346C5.09251 14.3296 5.04293 14.2013 5.04293 14.0496V11.7921L3.22293 9.37713C3.11793 9.23713 3.06543 9.10005 3.06543 8.96588C3.06543 8.81421 3.12376 8.6888 3.24043 8.58963C3.36293 8.48463 3.49126 8.43213 3.62543 8.43213C3.78876 8.43213 3.93168 8.5138 4.05418 8.67713L5.59418 10.8034L7.03793 8.69463C7.16043 8.51963 7.30626 8.43213 7.47543 8.43213C7.61543 8.43213 7.73793 8.48463 7.84293 8.58963C7.94793 8.69463 8.00043 8.82296 8.00043 8.97463Z" fill="#FBF9FA"/>
<path d="M10.1416 8.45838C10.2874 8.45838 10.4099 8.51088 10.5091 8.61588C10.6082 8.71505 10.6578 8.84046 10.6578 8.99213V14.0496C10.6578 14.2013 10.6024 14.3296 10.4916 14.4346C10.3807 14.5338 10.2437 14.5834 10.0803 14.5834C9.917 14.5834 9.78283 14.5338 9.67783 14.4346C9.57283 14.3296 9.52033 14.2013 9.52033 14.0496V9.90213L8.97783 10.2346C8.89033 10.2871 8.797 10.3134 8.69783 10.3134C8.552 10.3134 8.42658 10.258 8.32158 10.1471C8.22242 10.0363 8.17283 9.9138 8.17283 9.77963C8.17283 9.6863 8.19617 9.5988 8.24283 9.51713C8.29533 9.43546 8.36242 9.3713 8.44408 9.32463L9.76533 8.53713C9.8645 8.48463 9.98992 8.45838 10.1416 8.45838Z" fill="#FBF9FA"/>
<path d="M15.7176 11.5209C15.8576 11.5209 15.9743 11.5675 16.0676 11.6609C16.1609 11.7484 16.2076 11.8621 16.2076 12.0021C16.2076 12.1421 16.1609 12.2588 16.0676 12.3521C15.9743 12.4396 15.8576 12.4834 15.7176 12.4834H14.4926V13.6296C14.4926 13.793 14.4372 13.9271 14.3263 14.0321C14.2213 14.1371 14.0872 14.1896 13.9238 14.1896C13.7605 14.1896 13.6234 14.1371 13.5126 14.0321C13.4076 13.9271 13.3551 13.793 13.3551 13.6296V12.4834H12.1563C12.0163 12.4834 11.8997 12.4367 11.8063 12.3434C11.713 12.25 11.6663 12.1334 11.6663 11.9934C11.6663 11.8534 11.713 11.7396 11.8063 11.6521C11.8997 11.5646 12.0163 11.5209 12.1563 11.5209H13.3551V10.2171C13.3551 10.0538 13.4076 9.91963 13.5126 9.81463C13.6234 9.70963 13.7634 9.65713 13.9326 9.65713C14.0959 9.65713 14.2301 9.70963 14.3351 9.81463C14.4401 9.91963 14.4926 10.0538 14.4926 10.2171V11.5209H15.7176Z" fill="#FBF9FA"/>
</svg>

<svg width="20" height="20" fill="none" xmlns="http://www.w3.org/2000/svg"><path d="M6.604 5.167a.17.17 0 01.13.053c.033.036.05.08.05.134v1.943a.2.2 0 01-.204.203.338.338 0 01-.093-.013.14.14 0 01-.064-.043L5.2 5.89v1.424a.18.18 0 01-.053.133.174.174 0 01-.134.053.17.17 0 01-.13-.053.187.187 0 01-.05-.133V5.37a.2.2 0 01.203-.203c.034 0 .066.007.098.02a.158.158 0 01.073.053L6.42 6.787V5.354c0-.054.017-.098.05-.134a.18.18 0 01.134-.053zM7.628 7.297a.206.206 0 01-.057.147.194.194 0 01-.143.056.194.194 0 01-.143-.056.206.206 0 01-.057-.147V5.92c0-.058.019-.105.057-.143a.189.189 0 01.143-.06c.058 0 .106.02.143.06a.194.194 0 01.057.143v1.377zM7.425 5.5c-.076 0-.13-.012-.16-.036-.031-.025-.047-.068-.047-.13V5.27c0-.062.017-.105.05-.13.033-.024.087-.036.16-.036.078 0 .132.012.163.036.031.025.047.068.047.13v.064c0 .064-.017.108-.05.133-.031.022-.086.033-.163.033zM9.41 5.72a.18.18 0 01.132.054.166.166 0 01.054.126c0 .027-.01.06-.027.1l-.623 1.374a.203.203 0 01-.17.126l-.03.004a.189.189 0 01-.107-.034.249.249 0 01-.073-.096L7.946 6a.264.264 0 01-.024-.106c0-.045.02-.085.057-.12a.19.19 0 01.14-.057c.042 0 .081.011.117.033a.206.206 0 01.08.094l.46 1.053.456-1.05a.22.22 0 01.074-.097.157.157 0 01.103-.03zM11.495 6.567a.171.171 0 01-.064.13.212.212 0 01-.14.05h-1.1a.51.51 0 00.507.42.765.765 0 00.213-.023.63.63 0 00.184-.094c.04-.02.077-.03.113-.03.047 0 .087.017.12.05a.16.16 0 01.05.117c0 .06-.031.114-.093.163a.977.977 0 01-.567.183.993.993 0 01-.49-.116.82.82 0 01-.32-.32.947.947 0 01-.113-.463c0-.192.04-.36.12-.504a.84.84 0 01.736-.446.77.77 0 01.414.12.893.893 0 01.43.763zm-.844-.517c-.258 0-.41.121-.456.364h.873V6.39a.344.344 0 00-.137-.24.432.432 0 00-.28-.1zM13.284 5.684a.194.194 0 01.2.203v1.41a.206.206 0 01-.056.147.194.194 0 01-.144.056.194.194 0 01-.143-.056.213.213 0 01-.056-.144.698.698 0 01-.227.167.681.681 0 01-.297.067.77.77 0 01-.416-.117.856.856 0 01-.297-.33 1.038 1.038 0 01-.107-.477c0-.178.036-.336.107-.476a.81.81 0 01.29-.33.743.743 0 01.41-.12c.107 0 .207.02.3.06a.762.762 0 01.236.146v-.003c0-.058.02-.106.057-.143a.189.189 0 01.143-.06zm-.673 1.483a.447.447 0 00.353-.157.594.594 0 00.137-.4.594.594 0 00-.137-.4.443.443 0 00-.353-.16.44.44 0 00-.35.16.594.594 0 00-.136.4c0 .16.044.294.133.4a.447.447 0 00.353.157zM15.209 5.717c.058 0 .105.02.143.06a.194.194 0 01.057.143v.847c0 .24-.067.428-.2.563-.131.136-.32.204-.564.204-.244 0-.432-.068-.563-.204-.131-.135-.197-.323-.197-.563V5.92c0-.058.02-.105.057-.143a.189.189 0 01.143-.06c.058 0 .106.02.144.06a.194.194 0 01.056.143v.847c0 .135.03.237.09.303.06.065.15.097.27.097.123 0 .214-.032.274-.097.06-.066.09-.168.09-.303V5.92c0-.058.019-.105.056-.143a.189.189 0 01.144-.06z" fill="#FBF9FA"/><path fill-rule="evenodd" clip-rule="evenodd" d="M10 18.75a8.75 8.75 0 100-17.5 8.75 8.75 0 000 17.5zM10 20c5.523 0 10-4.477 10-10S15.523 0 10 0 0 4.477 0 10s4.477 10 10 10z" fill="#FBF9FA"/><path d="M8 8.975a.584.584 0 01-.096.323l-1.829 2.617v2.135a.54.54 0 01-.148.385c-.1.099-.22.148-.36.148a.529.529 0 01-.375-.148.54.54 0 01-.15-.385v-2.258l-1.82-2.415a.688.688 0 01-.157-.411c0-.152.059-.277.175-.376a.585.585 0 01.385-.158c.164 0 .307.082.43.245l1.54 2.126 1.443-2.108c.122-.175.268-.263.437-.263.14 0 .263.053.368.158A.524.524 0 018 8.975zM10.142 8.458c.145 0 .268.053.367.158.1.1.149.224.149.376v5.058a.51.51 0 01-.166.385.594.594 0 01-.412.148.562.562 0 01-.402-.148.524.524 0 01-.158-.385V9.902l-.542.333a.535.535 0 01-.28.078.5.5 0 01-.376-.166.539.539 0 01-.15-.367.52.52 0 01.07-.263.577.577 0 01.202-.192l1.321-.788a.8.8 0 01.377-.079zM15.718 11.52c.14 0 .256.048.35.14.093.088.14.202.14.342s-.047.257-.14.35a.492.492 0 01-.35.131h-1.225v1.147a.53.53 0 01-.167.402.545.545 0 01-.402.158.575.575 0 01-.411-.158.545.545 0 01-.158-.402v-1.147h-1.199a.475.475 0 01-.49-.49c0-.14.047-.253.14-.34a.492.492 0 01.35-.132h1.2v-1.304c0-.163.052-.297.157-.402a.586.586 0 01.42-.158c.163 0 .297.053.402.158.105.105.158.239.158.402v1.304h1.225z" fill="#FBF9FA"/></svg>
